icons/svg/access-point-network.svg

﻿<?xml version="1.0" encoding="utf-8"?>
<!DOCTYPE svg PUBLIC "-//W3C//DTD SVG 1.1//EN" "http://www.w3.org/Graphics/SVG/1.1/DTD/svg11.dtd">
<svg xmlns="http://www.w3.org/2000/svg" xmlns:xlink="http://www.w3.org/1999/xlink" version="1.1" baseProfile="full" width="24" height="24" viewBox="0 0 24.00 24.00" enable-background="new 0 0 24.00 24.00" xml:space="preserve">
	<path fill="#000000" fill-opacity="1" stroke-width="1.33333" stroke-linejoin="miter" d="M 4.93359,2.9336C 3.12247,4.7447 2,7.2445 2,10C 2,12.7555 3.12247,15.2553 4.93359,17.0664L 6.33789,15.6621C 4.89166,14.2159 4,12.2151 4,10C 4,7.785 4.89166,5.7841 6.33789,4.3379L 4.93359,2.9336 Z M 19.0664,2.9336L 17.6621,4.3379C 19.1083,5.7841 20,7.785 20,10C 20,12.2151 19.1083,14.2159 17.6621,15.6621L 19.0664,17.0664C 20.8775,15.2553 22,12.7555 22,10C 22,7.2445 20.8775,4.7447 19.0664,2.9336 Z M 7.76172,5.7617C 6.67445,6.849 6,8.3491 6,10C 6,11.651 6.67445,13.151 7.76172,14.2383L 9.16797,12.832C 8.44559,12.1097 8,11.1105 8,10C 8,8.8895 8.44559,7.8903 9.16797,7.168L 7.76172,5.7617 Z M 16.2383,5.7617L 14.832,7.168C 15.5544,7.8903 16,8.8895 16,10C 16,11.1105 15.5544,12.1097 14.832,12.832L 16.2383,14.2383C 17.3255,13.151 18,11.651 18,10C 18,8.3491 17.3255,6.849 16.2383,5.7617 Z M 12,8C 10.8954,8 10,8.8954 10,10C 10,11.1046 10.8954,12 12,12C 13.1046,12 14,11.1046 14,10C 14,8.8954 13.1046,8 12,8 Z M 11,14L 11,18L 10,18C 9.44772,18 9,18.4477 9,19L 2,19L 2,21L 9,21C 9,21.5523 9.44772,22 10,22L 14,22C 14.5523,22 15,21.5523 15,21L 22,21L 22,19L 15,19C 15,18.4477 14.5523,18 14,18L 13,18L 13,14L 11,14 Z "/>
</svg>

<svg xmlns="http://www.w3.org/2000/svg" version="1.1" baseProfile="full" width="24" height="24" viewBox="0 0 24.00 24.00" xml:space="preserve"><path fill="#000" fill-opacity="1" stroke-width="1.333" stroke-linejoin="miter" d="M4.934 2.934C3.122 4.744 2 7.244 2 10c0 2.755 1.122 5.255 2.934 7.066l1.404-1.404C4.892 14.216 4 12.215 4 10s.892-4.216 2.338-5.662L4.934 2.934zm14.132 0l-1.404 1.404C19.108 5.784 20 7.785 20 10s-.892 4.216-2.338 5.662l1.404 1.404C20.878 15.256 22 12.756 22 10c0-2.755-1.122-5.255-2.934-7.066zM7.762 5.762C6.674 6.85 6 8.35 6 10c0 1.65.674 3.15 1.762 4.238l1.406-1.406C8.446 12.11 8 11.11 8 10c0-1.11.446-2.11 1.168-2.832L7.762 5.762zm8.476 0l-1.406 1.406C15.554 7.89 16 8.888 16 10c0 1.11-.446 2.11-1.168 2.832l1.406 1.406C17.326 13.15 18 11.65 18 10c0-1.65-.674-3.15-1.762-4.238zM12 8c-1.105 0-2 .895-2 2s.895 2 2 2 2-.895 2-2-.895-2-2-2zm-1 6v4h-1c-.552 0-1 .448-1 1H2v2h7c0 .552.448 1 1 1h4c.552 0 1-.448 1-1h7v-2h-7c0-.552-.448-1-1-1h-1v-4h-2z"/></svg>
